assets/img/sofa.svg

<svg 
 xmlns="http://www.w3.org/2000/svg"
 xmlns:xlink="http://www.w3.org/1999/xlink"
 width="50px" height="50px">
<path fill-rule="evenodd"  fill-opacity="0" fill="rgb(33, 130, 238)"
 d="M0.000,0.000 L50.000,0.000 L50.000,50.000 L0.000,50.000 L0.000,0.000 Z"/>
<path fill-rule="evenodd"  fill="rgb(0, 111, 235)"
 d="M39.825,28.997 C39.006,28.182 38.063,27.970 37.609,27.872 C37.057,27.748 36.479,27.722 35.918,27.793 C33.649,22.551 27.579,19.000 20.504,19.000 C13.830,19.000 7.930,22.577 5.527,27.872 C4.824,27.722 4.103,27.722 3.400,27.881 C2.946,27.979 2.003,28.191 1.184,29.006 C1.033,29.156 -0.258,30.502 0.045,32.424 C0.338,34.327 1.994,35.514 3.409,35.815 C3.898,35.921 4.397,35.912 4.886,35.806 C4.931,35.797 4.975,35.788 5.011,35.779 C5.153,36.019 5.607,37.285 4.503,42.739 C4.477,42.881 4.486,43.031 4.530,43.173 C5.180,45.245 6.230,46.255 7.947,46.449 C7.983,46.449 8.010,46.458 8.045,46.458 L8.045,49.115 C8.045,49.602 8.446,50.000 8.935,50.000 C9.425,50.000 9.825,49.602 9.825,49.115 L9.825,46.458 L31.184,46.458 L31.184,49.115 C31.184,49.602 31.584,50.000 32.074,50.000 C32.563,50.000 32.964,49.602 32.964,49.115 L32.964,46.458 C32.999,46.458 33.026,46.458 33.062,46.449 C34.779,46.255 35.838,45.245 36.479,43.173 C36.523,43.031 36.532,42.881 36.506,42.739 C35.402,37.276 35.856,36.010 35.998,35.779 C36.034,35.788 36.078,35.797 36.123,35.806 C36.604,35.912 37.111,35.921 37.591,35.815 C39.006,35.514 40.662,34.327 40.955,32.424 C41.258,30.493 39.967,29.147 39.825,28.997 ZM20.504,20.771 C26.787,20.771 32.171,23.817 34.218,28.342 C33.916,28.510 33.622,28.696 33.346,28.899 C32.572,29.440 31.887,30.113 31.344,30.892 C30.926,31.503 30.596,32.167 30.347,32.866 C29.671,34.726 29.475,36.940 29.422,38.480 L11.587,38.480 C11.534,36.940 11.329,34.726 10.662,32.866 C10.412,32.167 10.083,31.503 9.665,30.892 C9.122,30.121 8.446,29.440 7.663,28.899 C7.502,28.784 7.333,28.669 7.164,28.563 C9.291,23.914 14.551,20.771 20.504,20.771 ZM39.211,32.149 C39.033,33.291 37.930,33.929 37.235,34.071 C36.977,34.124 36.719,34.115 36.470,34.053 C36.167,33.991 35.749,33.911 35.278,34.133 C33.791,34.797 33.631,37.329 34.726,42.854 C34.165,44.492 33.462,44.617 32.928,44.678 L8.090,44.678 C7.556,44.616 6.844,44.492 6.292,42.854 C7.387,37.329 7.227,34.797 5.740,34.133 C5.269,33.920 4.850,34.000 4.548,34.053 C4.299,34.115 4.032,34.124 3.783,34.071 C3.088,33.920 1.985,33.291 1.807,32.149 C1.638,31.078 2.439,30.254 2.439,30.245 C2.893,29.794 3.444,29.670 3.783,29.599 C4.236,29.493 4.717,29.493 5.171,29.599 C5.758,29.732 6.123,29.989 6.639,30.343 C7.244,30.768 7.778,31.290 8.197,31.892 C8.526,32.379 8.784,32.911 8.980,33.460 C9.701,35.470 9.816,38.020 9.816,39.357 C9.816,39.844 10.217,40.242 10.706,40.242 L30.285,40.242 C30.775,40.242 31.175,39.844 31.175,39.357 C31.175,38.011 31.291,35.461 32.012,33.451 C32.207,32.902 32.466,32.370 32.795,31.883 C33.222,31.281 33.747,30.750 34.352,30.334 C34.859,29.980 35.233,29.723 35.812,29.590 C36.275,29.493 36.746,29.493 37.209,29.590 C37.547,29.661 38.099,29.785 38.553,30.236 C38.570,30.254 39.371,31.078 39.211,32.149 Z"/>
</svg>

<svg id="Слой_1" data-name="Слой 1" xmlns="http://www.w3.org/2000/svg" viewBox="0 0 50 50"><defs><style>.cls-1{fill:#2182ee;fill-opacity:0;}.cls-2{fill:#11a2f6;}</style></defs><title>sofa</title><path class="cls-1" d="M0,0H50V50H0Z" transform="translate(0)"/><path class="cls-2" d="M39.83,29a4.29,4.29,0,0,0-2.22-1.13,5.05,5.05,0,0,0-1.69-.08C33.65,22.55,27.58,19,20.5,19c-6.67,0-12.57,3.58-15,8.87a4.94,4.94,0,0,0-2.13,0A4.29,4.29,0,0,0,1.18,29,4.11,4.11,0,0,0,.05,32.42a4.28,4.28,0,0,0,3.36,3.39,3.52,3.52,0,0,0,1.48,0l.12,0c.14.24.6,1.5-.51,7a1,1,0,0,0,0,.43c.65,2.07,1.7,3.09,3.42,3.28h.1v2.66a.89.89,0,0,0,1.77,0V46.46H31.18v2.66a.89.89,0,0,0,1.78,0V46.46h.1c1.72-.19,2.78-1.21,3.42-3.28a1,1,0,0,0,0-.43c-1.11-5.46-.65-6.73-.51-7l.12,0a3.47,3.47,0,0,0,1.47,0A4.3,4.3,0,0,0,41,32.42,4.19,4.19,0,0,0,39.83,29ZM20.5,20.77c6.29,0,11.67,3.05,13.72,7.57a8.61,8.61,0,0,0-.87.56,8.09,8.09,0,0,0-2,2,8.94,8.94,0,0,0-1,2,19.32,19.32,0,0,0-.93,5.61H11.59a19.66,19.66,0,0,0-.93-5.61,8.56,8.56,0,0,0-1-2,7.88,7.88,0,0,0-2-2c-.16-.12-.33-.23-.5-.34C9.29,23.91,14.55,20.77,20.5,20.77ZM39.21,32.15a2.54,2.54,0,0,1-2,1.92,1.67,1.67,0,0,1-.77,0,1.8,1.8,0,0,0-1.19.08c-1.49.67-1.65,3.2-.55,8.72-.56,1.64-1.27,1.77-1.8,1.83H8.09c-.53-.06-1.25-.19-1.8-1.83,1.1-5.52.94-8.05-.55-8.72a1.93,1.93,0,0,0-1.19-.08,1.67,1.67,0,0,1-.77,0,2.55,2.55,0,0,1-2-1.92,2.45,2.45,0,0,1,.63-1.9,2.46,2.46,0,0,1,1.34-.65,3,3,0,0,1,1.39,0,4,4,0,0,1,1.47.74A6.56,6.56,0,0,1,8.2,31.89,7.18,7.18,0,0,1,9,33.46a19.09,19.09,0,0,1,.84,5.9.89.89,0,0,0,.89.88H30.28a.89.89,0,0,0,.89-.88A19.11,19.11,0,0,1,32,33.45a7.66,7.66,0,0,1,.78-1.57,6.56,6.56,0,0,1,1.56-1.55,4,4,0,0,1,1.46-.74,3.3,3.3,0,0,1,1.4,0,2.29,2.29,0,0,1,2,2.56Z" transform="translate(0)"/></svg>
